!!!OTL: 1603. Der Handwerksgesell auf Reisen.
!!!ARE: Europa, Mitteleuropa, Deutschland, Brandenburg; Westfalen
!!!SCT: E1603A
!!!YEM: Copyright 1995, estate of Helmut Schaffrath.
**kern	**text
*ICvox	*
*M4/4	*
*met(c)	*
*k[b-]	*
*F:	*
!LO:TX:a:t=Brandenb. Mel. auch ſo in Weſtfalen.	!
{8f	Steh
8a	nur
=1	=1
4cc	auf,
8cc	ſteh
8cc	nur
8.ccL	.
16dd	auf,
8ccJ	.
8b-	du
=2	=2
8b-L	Handwerks-
8aJ	.
8a	.
8a	-ge-
4.a}	-ſell!
{8a	die
=3	=3
4.g	Ʒeit
8a	haſt
8ccL	du
8b-J	.
8b-L	ver-
8aJ	.
=4	=4
2a	-ſchla-
4g}	-fen;
{4cc	die
=5	=5
4.dd	Vög-
8cc	-lein
4dd	ſin-
8dd	-gen
8ee	auf
=6	=6
8ff	grü-
8ff	-ner,
8ee	grüner
8dd	.
4.cc}	Heid,
{8b-/	der
=7	=7
4a	Fuhrmann
8a	.
8cc	und
8ccL	der
8b-J	.
8aL	thut
8gJ	.
=8	=8
2g	fah-
4f}	-ren.
{4cc	die
=9	=9
4.dd	Vög-
8cc	-lein
4dd	ſin-
8dd	-gen
8ee	auf
=10	=10
8ff	grü-
8ff	-ner,
8ee	grüner
8dd	.
4.cc}	Heid,
{8b-/	der
=11	=11
4a	Fuhrmann
8a	.
8cc	und
8ccL	der
8b-J	.
8aL	thut
8gJ	.
=12	=12
2g	fah-
4f}	-ren.
==	==
!!!AGN: Staende -, Handwerker -, Gesellen - Lied, Wanderschaft
!!!ONB: ESAC (Essen Associative Code) Database: ERK3
!!!AMT: simple quadruple
!!!AIN: vox
!!!EED: Helmut Schaffrath
!!!EEV: 1.0
!!!GTL: Staendelieder (Berufslieder). 8. Handwerkerlieder.
!!!URL-scan: https://rosdok.uni-rostock.de/mcrviewer/recordIdentifier/rosdok_ppn745177999/iview2/phys_0429.iview2?x=-449.8344612962892&y=-88.70829395297915&scale=0.47549036216460333&rotation=0&layout=singlePageLayout
!!!ENC: Anna Maria Matuszewska
!!!EEV: 2025/08/01
*-	*-
